icon/pk/fitness.svg

<svg viewBox="0 0 48 48" fill="none" xmlns="http://www.w3.org/2000/svg" height="1em" width="1em">
  <path d="M43 25.9999C40.5466 24.992 36 21 28 26.9997C25.8971 25.8237 22 23 16 27.9997C15.299 25.1441 15.1588 18.6438 16 12.9997C16.3505 12.1598 17.7943 11.5652 22 15.9998L27 10.9999C26.6495 8.81612 24 6 16 6C13 6 10.2617 8.56527 9 12.9998C7.42284 17.5353 5 27.9998 5 33.9998C4.99999 35.8476 7.5 39.9999 17 39.9999C19 39.9999 24.8502 40.225 32 36.9998L38 41.9997" stroke="black" stroke-width="4" stroke-linecap="round" stroke-linejoin="round"/>
</svg>

<svg width="48" height="48" fill="none" xmlns="http://www.w3.org/2000/svg"><path d="M43 26c-2.453-1.008-7-5-15 1-2.103-1.176-6-4-12 1-.701-2.856-.841-9.356 0-15 .35-.84 1.794-1.435 6 3l5-5c-.35-2.184-3-5-11-5-3 0-5.738 2.565-7 7-1.577 4.535-4 15-4 21 0 1.848 2.5 6 12 6 2 0 7.85.225 15-3l6 5" stroke="#000" stroke-width="4" stroke-linecap="round" stroke-linejoin="round"/></svg>
